assets/icons/save.svg

<svg xmlns="http://www.w3.org/2000/svg" viewBox="0 0 24 24" role="presentation" aria-hidden="true"><path fill-rule="evenodd" clip-rule="evenodd" d="M6.55556 5.75C6.34191 5.75 6.13701 5.83487 5.98594 5.98594C5.83487 6.13701 5.75 6.34191 5.75 6.55556V17.4444C5.75 17.6581 5.83487 17.863 5.98594 18.0141C6.13701 18.1651 6.34191 18.25 6.55556 18.25H7.3613V12.7778C7.3613 12.3636 7.69708 12.0278 8.1113 12.0278H15.8891C16.3033 12.0278 16.6391 12.3636 16.6391 12.7778V18.25H17.4444C17.6581 18.25 17.863 18.1651 18.0141 18.0141C18.1651 17.863 18.25 17.6581 18.25 17.4444V9.19955L14.8005 5.75H8.8613V8.13889H14.3335C14.7477 8.13889 15.0835 8.47468 15.0835 8.88889C15.0835 9.3031 14.7477 9.63889 14.3335 9.63889H8.1113C7.69708 9.63889 7.3613 9.3031 7.3613 8.88889V5.75H6.55556ZM8.1113 4.25H6.55556C5.94408 4.25 5.35766 4.49291 4.92528 4.92528C4.49291 5.35766 4.25 5.94408 4.25 6.55556V17.4444C4.25 18.0559 4.49291 18.6423 4.92528 19.0747C5.35766 19.5071 5.94408 19.75 6.55556 19.75H17.4444C18.0559 19.75 18.6423 19.5071 19.0747 19.0747C19.5071 18.6423 19.75 18.0559 19.75 17.4444V8.88889C19.75 8.68998 19.671 8.49921 19.5303 8.35856L15.6414 4.46967C15.5008 4.32902 15.31 4.25 15.1111 4.25H8.1113ZM15.1391 18.25H8.8613V13.5278H15.1391V18.25Z" fill="currentColor"/></svg>

<svg xmlns="http://www.w3.org/2000/svg" aria-hidden="true" viewBox="0 0 24 24"><path fill="currentColor" fill-rule="evenodd" d="M6.556 5.75a.806.806 0 0 0-.806.806v10.888a.806.806 0 0 0 .806.806h.805v-5.472a.75.75 0 0 1 .75-.75h7.778a.75.75 0 0 1 .75.75v5.472h.805a.806.806 0 0 0 .806-.806V9.2L14.8 5.75H8.862v2.389h5.473a.75.75 0 0 1 0 1.5H8.11a.75.75 0 0 1-.75-.75V5.75zm1.555-1.5H6.556A2.306 2.306 0 0 0 4.25 6.556v10.888a2.306 2.306 0 0 0 2.306 2.306h10.888a2.306 2.306 0 0 0 2.306-2.306V8.89a.75.75 0 0 0-.22-.53l-3.889-3.89a.75.75 0 0 0-.53-.219zm7.028 14H8.861v-4.722h6.278z" clip-rule="evenodd"/></svg>
